X:1
T: Craigieford
C:
R:Reel
Q: 232
K:D
M:4/4
L:1/8
A,2|D2 A,D FA dc|B2 A2 A4|AA, DF AG FA|G2 E2 E3D|
C2 A,C EC EG|c2 B2 B4|DE ^GA Gb aB|A2 a2 A2 A,2|
D2 A,D FA dc|B2 A2 A4|dd de fe dc|B2 g2 g4|
dd dd d2 g2|ff fe d2 B2|A2 ec AG FE|D2 d2 d2 A2|
dd dd f2 a2|b2 a2 a2 A2|dd dd c2 B2|A2 a2 a2 A2|
^GG GG F2 E2|cc cc e2 c2|^dB AF E=d B^G|A2 A,2 A,4|
D2 DE FA dc|B2 A2 A4|dD FA de fb|a2 g2 g4|
gg gg d2 g2|aa aa d2 B2|A2 ec AG FE|D2 d2 d4||
